logos/mastodon.svg

<?xml version="1.0" encoding="UTF-8"?>
<svg width="512px" height="127px" viewBox="0 0 512 127" version="1.1" xmlns="http://www.w3.org/2000/svg" xmlns:xlink="http://www.w3.org/1999/xlink" preserveAspectRatio="xMidYMid">
    <g>
				<path d="M115.235143,75.6712862 C113.503617,84.5756376 99.7339459,94.3197343 83.9178441,96.2082643 C75.6702167,97.1933502 67.5508837,98.0967942 58.8923553,97.7002478 C44.7315208,97.0515983 33.558242,94.3197343 33.558242,94.3197343 C33.558242,95.6986752 33.6434726,97.0112259 33.8130366,98.2385461 C35.6540168,112.21277 47.6706296,113.050722 59.0529476,113.440988 C70.5411309,113.833946 80.7696961,110.607744 80.7696961,110.607744 L81.2425015,120.995108 C81.2425015,120.995108 73.2066048,125.309569 58.8923553,126.102661 C50.9982104,126.536889 41.1975924,125.904388 29.7811822,122.883638 C5.02304814,116.329855 0.765108431,89.9388832 0.113767465,63.1603361 C-0.0854029136,55.20967 0.037508536,47.7120715 0.037508536,41.4426904 C0.037508536,14.0594549 17.9780944,6.033427 17.9780944,6.033427 C27.0241976,1.87866113 42.5469268,0.131883088 58.6842133,0 L59.0807597,0 C75.2180461,0.131883088 90.7506441,1.87866113 99.7967474,6.033427 C99.7967474,6.033427 117.737333,14.0594549 117.737333,41.4426904 C117.737333,41.4426904 117.961624,61.6450264 115.235143,75.6712862" fill="#3088D4"></path>
				<path d="M24.8747724,34.8056516 C24.8747724,30.8195525 28.1063567,27.5888655 32.0915586,27.5888655 C36.0776576,27.5888655 39.3083447,30.8195525 39.3083447,34.8056516 C39.3083447,38.7908535 36.0776576,42.0224377 32.0915586,42.0224377 C28.1063567,42.0224377 24.8747724,38.7908535 24.8747724,34.8056516 M128.3768,43.5660979 L128.3768,76.7216857 L115.241423,76.7216857 L115.241423,44.5404178 C115.241423,37.7560647 112.386648,34.3136469 106.677097,34.3136469 C100.365549,34.3136469 97.2012523,38.398434 97.2012523,46.4747031 L97.2012523,64.0887213 L84.1430323,64.0887213 L84.1430323,46.4747031 C84.1430323,38.398434 80.9787353,34.3136469 74.6671875,34.3136469 C68.9576367,34.3136469 66.1028613,37.7560647 66.1028613,44.5404178 L66.1028613,76.7216857 L52.9674851,76.7216857 L52.9674851,43.5660979 C52.9674851,36.7898192 54.6927312,31.4050417 58.1584752,27.420737 C61.7327761,23.4373294 66.41328,21.3953844 72.222416,21.3953844 C78.9448648,21.3953844 84.0353726,23.9783192 87.3997371,29.1459831 L90.6725909,34.6312429 L93.9445475,29.1459831 C97.3098092,23.9783192 102.39942,21.3953844 109.122766,21.3953844 C114.931902,21.3953844 119.611509,23.4373294 123.185809,27.420737 C126.651553,31.4050417 128.3768,36.7898192 128.3768,43.5660979 M173.628309,60.047985 C176.338641,57.1842379 177.644015,53.5776392 177.644015,49.2281888 C177.644015,44.8787383 176.338641,41.2721396 173.628309,38.5142579 C171.01846,35.6496136 167.704336,34.2715699 163.688631,34.2715699 C159.672028,34.2715699 156.358802,35.6496136 153.748952,38.5142579 C151.138206,41.2721396 149.832832,44.8787383 149.832832,49.2281888 C149.832832,53.5776392 151.138206,57.1842379 153.748952,60.047985 C156.358802,62.8058667 159.672028,64.1848076 163.688631,64.1848076 C167.704336,64.1848076 171.01846,62.8058667 173.628309,60.047985 M177.644015,22.7080249 L190.59637,22.7080249 L190.59637,75.7483526 L177.644015,75.7483526 L177.644015,69.4888403 C173.728792,74.6870078 168.306333,77.2331588 161.278849,77.2331588 C154.551914,77.2331588 148.828906,74.5811424 144.009342,69.1703472 C139.291157,63.760449 136.881375,57.0774754 136.881375,49.2281888 C136.881375,41.4847674 139.291157,34.8008966 144.009342,29.3909985 C148.828906,23.9811004 154.551914,21.2232187 161.278849,21.2232187 C168.306333,21.2232187 173.728792,23.7693697 177.644015,28.96664 L177.644015,22.7080249 L177.644015,22.7080249 Z M234.173772,48.2736064 C237.988513,51.1373535 239.89678,55.1683107 239.796298,60.2597156 C239.796298,65.6705109 237.88803,69.9131988 233.972807,72.8837084 C230.056687,75.7483526 225.338502,77.2331588 219.615494,77.2331588 C209.273886,77.2331588 202.245504,72.9895737 198.530349,64.6091661 L209.776298,57.9270896 C211.281739,62.4873735 214.594965,64.8217939 219.615494,64.8217939 C224.233196,64.8217939 226.543393,63.3360905 226.543393,60.2597156 C226.543393,58.0320578 223.530717,56.0170277 217.406676,54.4263562 C215.096479,53.7893698 213.189109,53.1532807 211.683668,52.6221597 C209.575333,51.7743398 207.768445,50.8188603 206.262107,49.6525473 C202.546951,46.7888002 200.639581,42.9686765 200.639581,38.0898994 C200.639581,32.8917319 202.446469,28.7549093 206.061142,25.7843998 C209.776298,22.7080249 214.293518,21.2232187 219.715976,21.2232187 C228.350281,21.2232187 234.676184,24.9356828 238.791474,32.4673734 L227.748284,38.8318539 C226.141464,35.2261523 223.431132,33.4228529 219.715976,33.4228529 C215.799856,33.4228529 213.892485,34.9076591 213.892485,37.7714062 C213.892485,39.9990641 216.904265,42.0140941 223.029202,43.6056628 C227.748284,44.6661105 231.462543,46.2576792 234.173772,48.2736064 M275.340764,35.8622415 L263.995229,35.8622415 L263.995229,57.9270896 C263.995229,60.579106 265.000053,62.1697775 266.907423,62.911732 C268.313279,63.442853 271.124094,63.5487184 275.340764,63.3360905 L275.340764,75.7483526 C266.606874,76.8088003 260.280971,75.9600833 256.565816,73.0954391 C252.851557,70.3375573 251.043772,65.2461524 251.043772,57.9270896 L251.043772,35.8622415 L242.308985,35.8622415 L242.308985,22.7080249 L251.043772,22.7080249 L251.043772,11.994094 L263.995229,7.85727142 L263.995229,22.7080249 L275.340764,22.7080249 L275.340764,35.8622415 Z M316.609046,59.7299404 C319.219792,56.9711615 320.524269,53.4704281 320.524269,49.2277402 C320.524269,44.9850522 319.219792,41.4843188 316.609046,38.7264371 C313.998299,35.9676582 310.785555,34.5896145 306.869435,34.5896145 C302.954211,34.5896145 299.741468,35.9676582 297.130721,38.7264371 C294.620456,41.5901842 293.315083,45.0909176 293.315083,49.2277402 C293.315083,53.3654599 294.620456,56.8661933 297.130721,59.7299404 C299.741468,62.4878221 302.954211,63.866763 306.869435,63.866763 C310.785555,63.866763 313.998299,62.4878221 316.609046,59.7299404 M287.994004,69.1707957 C282.87389,63.7608976 280.363625,57.1837893 280.363625,49.2277402 C280.363625,41.3775563 282.87389,34.8013452 287.994004,29.3914471 C293.114118,23.981549 299.440021,21.2236673 306.869435,21.2236673 C314.299746,21.2236673 320.624751,23.981549 325.745762,29.3914471 C330.866774,34.8013452 333.476623,41.4843188 333.476623,49.2277402 C333.476623,57.077924 330.866774,63.7608976 325.745762,69.1707957 C320.624751,74.581591 314.400228,77.2327102 306.869435,77.2327102 C299.339538,77.2327102 293.114118,74.581591 287.994004,69.1707957 M376.752309,60.047985 C379.363056,57.1842379 380.667532,53.5776392 380.667532,49.2281888 C380.667532,44.8787383 379.363056,41.2721396 376.752309,38.5142579 C374.14246,35.6496136 370.828336,34.2715699 366.812631,34.2715699 C362.796028,34.2715699 359.482802,35.6496136 356.77247,38.5142579 C354.16262,41.2721396 352.85635,44.8787383 352.85635,49.2281888 C352.85635,53.5776392 354.16262,57.1842379 356.77247,60.047985 C359.482802,62.8058667 362.896511,64.1848076 366.812631,64.1848076 C370.828336,64.1848076 374.14246,62.8058667 376.752309,60.047985 M380.667532,1.49189379 L393.619887,1.49189379 L393.619887,75.7483526 L380.667532,75.7483526 L380.667532,69.4888403 C376.852792,74.6870078 371.430333,77.2331588 364.402849,77.2331588 C357.675914,77.2331588 351.853321,74.5811424 347.033756,69.1703472 C342.314674,63.760449 339.904892,57.0774754 339.904892,49.2281888 C339.904892,41.4847674 342.314674,34.8008966 347.033756,29.3909985 C351.853321,23.9811004 357.675914,21.2232187 364.402849,21.2232187 C371.430333,21.2232187 376.852792,23.7693697 380.667532,28.96664 L380.667532,1.49189379 Z M439.105198,59.7299404 C441.715048,56.9711615 443.020421,53.4704281 443.020421,49.2277402 C443.020421,44.9850522 441.715048,41.4843188 439.105198,38.7264371 C436.494451,35.9676582 433.281707,34.5896145 429.365587,34.5896145 C425.450364,34.5896145 422.236723,35.9676582 419.626873,38.7264371 C417.115712,41.5901842 415.811235,45.0909176 415.811235,49.2277402 C415.811235,53.3654599 417.115712,56.8661933 419.626873,59.7299404 C422.236723,62.4878221 425.450364,63.866763 429.365587,63.866763 C433.281707,63.866763 436.494451,62.4878221 439.105198,59.7299404 M410.490156,69.1707957 C405.369145,63.7608976 402.859778,57.1837893 402.859778,49.2277402 C402.859778,41.3775563 405.369145,34.8013452 410.490156,29.3914471 C415.611168,23.981549 421.936173,21.2236673 429.365587,21.2236673 C436.795898,21.2236673 443.120903,23.981549 448.241915,29.3914471 C453.362926,34.8013452 455.972776,41.4843188 455.972776,49.2277402 C455.972776,57.077924 453.362926,63.7608976 448.241915,69.1707957 C443.120903,74.581591 436.896381,77.2327102 429.365587,77.2327102 C421.835691,77.2327102 415.611168,74.581591 410.490156,69.1707957 M511.999762,43.1814837 L511.999762,75.7476349 L499.047407,75.7476349 L499.047407,44.8789178 C499.047407,41.3781844 498.143963,38.726168 496.337075,36.7111379 C494.629772,34.9078386 492.21999,33.952359 489.107729,33.952359 C481.7779,33.952359 478.063642,38.3018095 478.063642,47.1065756 L478.063642,75.7476349 L465.111287,75.7476349 L465.111287,22.7082043 L478.063642,22.7082043 L478.063642,28.6483263 C481.175903,23.6627867 486.095053,21.2233981 493.023849,21.2233981 C498.545893,21.2233981 503.06401,23.1325628 506.578201,27.0576547 C510.191977,30.9827466 511.999762,36.2867794 511.999762,43.1814837" fill="#FFFFFF"></path>
    </g>
</svg>

<svg width="512" height="127" xmlns="http://www.w3.org/2000/svg" preserveAspectRatio="xMidYMid">
	<path d="M115.235 75.671c-1.731 8.905-15.501 18.649-31.317 20.537-8.248.985-16.367 1.889-25.026 1.492-14.16-.648-25.334-3.38-25.334-3.38 0 1.379.085 2.691.255 3.919 1.841 13.974 13.858 14.812 25.24 15.202 11.488.393 21.717-2.833 21.717-2.833l.473 10.387s-8.036 4.315-22.35 5.108c-7.895.434-17.695-.199-29.112-3.22C5.023 116.33.765 89.94.114 63.16c-.2-7.95-.076-15.448-.076-21.717 0-27.384 17.94-35.41 17.94-35.41C27.024 1.88 42.547.132 58.684 0h.397c16.137.132 31.67 1.879 40.716 6.033 0 0 17.94 8.026 17.94 35.41 0 0 .225 20.202-2.502 34.228" fill="#3088D4"/>
	<path d="M24.875 34.806a7.217 7.217 0 1 1 14.434 0 7.217 7.217 0 0 1-14.434 0m103.502 8.76v33.156H115.24V44.54c0-6.784-2.854-10.226-8.564-10.226-6.311 0-9.476 4.084-9.476 12.16V64.09H84.143V46.475c0-8.077-3.164-12.161-9.476-12.161-5.71 0-8.564 3.442-8.564 10.226v32.182H52.967V43.566c0-6.776 1.726-12.161 5.191-16.145 3.575-3.984 8.255-6.026 14.064-6.026 6.723 0 11.813 2.583 15.178 7.751l3.273 5.485 3.272-5.485c3.365-5.168 8.454-7.75 15.178-7.75 5.809 0 10.489 2.041 14.063 6.025 3.466 3.984 5.19 9.369 5.19 16.145m45.252 16.482c2.71-2.864 4.016-6.47 4.016-10.82 0-4.35-1.305-7.956-4.016-10.714-2.61-2.864-5.924-4.242-9.94-4.242-4.016 0-7.33 1.378-9.939 4.242-2.61 2.758-3.916 6.365-3.916 10.714 0 4.35 1.305 7.956 3.916 10.82 2.61 2.758 5.923 4.137 9.94 4.137 4.015 0 7.33-1.38 9.94-4.137m4.015-37.34h12.952v53.04h-12.952v-6.26c-3.915 5.199-9.338 7.745-16.365 7.745-6.727 0-12.45-2.652-17.27-8.063-4.718-5.41-7.128-12.093-7.128-19.942 0-7.743 2.41-14.427 7.128-19.837 4.82-5.41 10.543-8.168 17.27-8.168 7.027 0 12.45 2.546 16.365 7.744v-6.259Zm56.53 25.566c3.815 2.863 5.723 6.894 5.622 11.986 0 5.41-1.908 9.653-5.823 12.624-3.916 2.864-8.634 4.35-14.358 4.35-10.341 0-17.37-4.244-21.085-12.625l11.246-6.682c1.506 4.56 4.819 6.895 9.84 6.895 4.617 0 6.927-1.486 6.927-4.562 0-2.228-3.012-4.243-9.136-5.834a84.305 84.305 0 0 1-5.723-1.804c-2.109-.848-3.916-1.803-5.422-2.97-3.715-2.863-5.622-6.683-5.622-11.562 0-5.198 1.806-9.335 5.421-12.306 3.715-3.076 8.233-4.56 13.655-4.56 8.634 0 14.96 3.712 19.075 11.243l-11.043 6.365c-1.607-3.606-4.317-5.41-8.032-5.41-3.916 0-5.824 1.486-5.824 4.35 0 2.227 3.012 4.242 9.137 5.834 4.72 1.06 8.434 2.652 11.145 4.668m41.167-12.412h-11.346v22.065c0 2.652 1.005 4.243 2.912 4.985 1.406.53 4.217.637 8.434.424v12.412c-8.734 1.06-15.06.212-18.775-2.653-3.714-2.757-5.522-7.849-5.522-15.168V35.862h-8.735V22.708h8.735V11.994l12.951-4.137v14.851h11.346v13.154Zm41.268 23.868c2.61-2.759 3.915-6.26 3.915-10.502 0-4.243-1.304-7.744-3.915-10.502-2.61-2.758-5.823-4.136-9.74-4.136-3.915 0-7.128 1.378-9.738 4.136-2.51 2.864-3.816 6.365-3.816 10.502 0 4.137 1.305 7.638 3.816 10.502 2.61 2.758 5.823 4.137 9.738 4.137 3.917 0 7.13-1.38 9.74-4.137m-28.615 9.44c-5.12-5.41-7.63-11.986-7.63-19.942 0-7.85 2.51-14.427 7.63-19.837s11.446-8.167 18.875-8.167c7.43 0 13.756 2.758 18.877 8.167 5.12 5.41 7.73 12.093 7.73 19.837 0 7.85-2.61 14.533-7.73 19.943-5.121 5.41-11.346 8.062-18.877 8.062-7.53 0-13.755-2.651-18.875-8.062m88.758-9.123c2.611-2.864 3.916-6.47 3.916-10.82 0-4.35-1.305-7.956-3.916-10.714-2.61-2.864-5.924-4.242-9.94-4.242-4.016 0-7.33 1.378-10.04 4.242-2.61 2.758-3.916 6.365-3.916 10.714 0 4.35 1.307 7.956 3.916 10.82 2.71 2.758 6.125 4.137 10.04 4.137 4.016 0 7.33-1.38 9.94-4.137m3.916-58.556h12.952v74.256h-12.952v-6.26c-3.815 5.199-9.238 7.745-16.265 7.745-6.727 0-12.55-2.652-17.37-8.063-4.718-5.41-7.128-12.093-7.128-19.942 0-7.743 2.41-14.427 7.129-19.837 4.82-5.41 10.642-8.168 17.369-8.168 7.027 0 12.45 2.546 16.265 7.744V1.492Zm58.437 58.238c2.61-2.759 3.915-6.26 3.915-10.502 0-4.243-1.305-7.744-3.915-10.502-2.61-2.758-5.823-4.136-9.74-4.136-3.915 0-7.128 1.378-9.738 4.136-2.511 2.864-3.816 6.365-3.816 10.502 0 4.137 1.305 7.638 3.816 10.502 2.61 2.758 5.823 4.137 9.739 4.137 3.916 0 7.128-1.38 9.74-4.137m-28.616 9.44c-5.12-5.41-7.63-11.986-7.63-19.942 0-7.85 2.51-14.427 7.63-19.837 5.121-5.41 11.446-8.167 18.876-8.167 7.43 0 13.755 2.758 18.876 8.167 5.12 5.41 7.73 12.093 7.73 19.837 0 7.85-2.61 14.533-7.73 19.943-5.121 5.41-11.346 8.062-18.876 8.062-7.53 0-13.755-2.651-18.876-8.062M512 43.18v32.567h-12.953v-30.87c0-3.5-.903-6.152-2.71-8.167-1.707-1.803-4.117-2.759-7.23-2.759-7.33 0-11.043 4.35-11.043 13.155v28.64H465.11V22.709h12.953v5.94c3.112-4.985 8.031-7.425 14.96-7.425 5.522 0 10.04 1.91 13.554 5.835C510.192 30.983 512 36.287 512 43.18" fill="#FFF"/>
</svg>
